X: 18350
T: Humours Of Whiskey, The
R: slip jig
M: 9/8
K: Gmajor
B2A BEE BEE|B2A BGE FED|B2A BEE BEE|DFG A2G FED:|
B2A Bee B3|B2A Beg fed|B2A BEE BEE|DFG A2G FED:|
G2A B2A BcA|G2A B2A eAA|G2A B2A B2d|eAA A2G FED:|
G3 BdB cBA|G3 BGB AFD|G3 BGB ABc|dcB ABG FED:|
B/c/BA BGE E3|B/c/BA BGE FGA|B/c/BA BGF EFG|A3 ABG FED:|
G2A Bee Bee|GFG BGB AFD|G2A Bee Bee|dcd A2G FED:|
d2e fdf ecA|dcd fdf gfe|1 d2e fdf ecA|Bcd A2G FED:|2 d2e fga ecA|Bcd A2G FED||
gfe fBB fBB|gfe fBB fga|gfe fBB efg|agf efd cBA:|
d2e fdf ecA|d2e fed gfe|d2e fdf efg|agf efd cBA||d3d3||

